svg/business/medal_fill.svg

<?xml version="1.0" encoding="UTF-8"?>
<svg width="24px" height="24px" viewBox="0 0 24 24" version="1.1" xmlns="http://www.w3.org/2000/svg" xmlns:xlink="http://www.w3.org/1999/xlink">
    <title>medal_fill</title>
    <g id="页面-1" stroke="none" stroke-width="1" fill="none" fill-rule="evenodd">
        <g id="Business" transform="translate(-96.000000, -240.000000)" fill-rule="nonzero">
            <g id="medal_fill" transform="translate(96.000000, 240.000000)">
                <path d="M24,0 L24,24 L0,24 L0,0 L24,0 Z M12.5934901,23.257841 L12.5819402,23.2595131 L12.5108777,23.2950439 L12.4918791,23.2987469 L12.4918791,23.2987469 L12.4767152,23.2950439 L12.4056548,23.2595131 C12.3958229,23.2563662 12.3870493,23.2590235 12.3821421,23.2649074 L12.3780323,23.275831 L12.360941,23.7031097 L12.3658947,23.7234994 L12.3769048,23.7357139 L12.4804777,23.8096931 L12.4953491,23.8136134 L12.4953491,23.8136134 L12.5071152,23.8096931 L12.6106902,23.7357139 L12.6232938,23.7196733 L12.6232938,23.7196733 L12.6266527,23.7031097 L12.609561,23.275831 C12.6075724,23.2657013 12.6010112,23.2592993 12.5934901,23.257841 L12.5934901,23.257841 Z M12.8583906,23.1452862 L12.8445485,23.1473072 L12.6598443,23.2396597 L12.6498822,23.2499052 L12.6498822,23.2499052 L12.6471943,23.2611114 L12.6650943,23.6906389 L12.6699349,23.7034178 L12.6699349,23.7034178 L12.678386,23.7104931 L12.8793402,23.8032389 C12.8914285,23.8068999 12.9022333,23.8029875 12.9078286,23.7952264 L12.9118235,23.7811639 L12.8776777,23.1665331 C12.8752882,23.1545897 12.8674102,23.1470016 12.8583906,23.1452862 L12.8583906,23.1452862 Z M12.1430473,23.1473072 C12.1332178,23.1423925 12.1221763,23.1452606 12.1156365,23.1525954 L12.1099173,23.1665331 L12.0757714,23.7811639 C12.0751323,23.7926639 12.0828099,23.8018602 12.0926481,23.8045676 L12.108256,23.8032389 L12.3092106,23.7104931 L12.3186497,23.7024347 L12.3186497,23.7024347 L12.3225043,23.6906389 L12.340401,23.2611114 L12.337245,23.2485176 L12.337245,23.2485176 L12.3277531,23.2396597 L12.1430473,23.1473072 Z" id="MingCute" fill-rule="nonzero"></path>
                <path d="M12,8 C15.866,8 19,11.134 19,15 C19,18.866 15.866,22 12,22 C8.13401,22 5,18.866 5,15 C5,11.134 8.13401,8 12,8 Z M12,13 C10.8954,13 10,13.8954 10,15 C10,16.1046 10.8954,17 12,17 C13.1046,17 14,16.1046 14,15 C14,13.8954 13.1046,13 12,13 Z M9.41968,2 C10.0821908,2 10.6978206,2.32768095 11.068695,2.86821775 L11.1562,3.00772 L12.8909,6.04354 C12.5978,6.01474 12.3006,6 12,6 C9.76574286,6 7.72164444,6.81414059 6.14817555,8.1619337 L5.91572,8.36807 L3.55923,4.24421 C3.00978769,3.28268115 3.65623111,2.09534794 4.73065409,2.005437 L4.86159,2 L9.41968,2 Z M19.1384,2 C20.2901,2 21.0122,3.24422 20.4408,4.24421 L18.0843,8.36806 C17.2521,7.60422 16.2758,6.99496 15.2008,6.5858 L13.1562,3.00772 C13.1092,2.9256 13.057,2.84762 13,2.77412 C13.3755,2.28989 13.9572,2 14.5803,2 L19.1384,2 Z" id="形状" fill="#09244B"></path>
            </g>
        </g>
    </g>
</svg>

<svg xmlns="http://www.w3.org/2000/svg" width="24" height="24"><g fill="none" fill-rule="nonzero"><path d="M24 0v24H0V0zM12.593 23.258l-.011.002-.071.035-.02.004-.014-.004-.071-.035c-.01-.004-.019-.001-.024.005l-.004.01-.017.428.005.02.01.013.104.074.015.004.012-.004.104-.074.012-.016.004-.017-.017-.427c-.002-.01-.009-.017-.017-.018m.265-.113-.013.002-.185.093-.01.01-.003.011.018.43.005.012.008.007.201.093c.012.004.023 0 .029-.008l.004-.014-.034-.614c-.003-.012-.01-.02-.02-.022m-.715.002a.023.023 0 0 0-.027.006l-.006.014-.034.614c0 .012.007.02.017.024l.015-.002.201-.093.01-.008.004-.011.017-.43-.003-.012-.01-.01z"/><path fill="#09244B" d="M12 8a7 7 0 1 1 0 14 7 7 0 0 1 0-14m0 5a2 2 0 1 0 0 4 2 2 0 0 0 0-4M9.42 2a2 2 0 0 1 1.649.868l.087.14 1.735 3.036a8.965 8.965 0 0 0-6.743 2.118l-.232.206-2.357-4.124a1.5 1.5 0 0 1 1.172-2.239L4.86 2zm9.718 0a1.5 1.5 0 0 1 1.303 2.244l-2.357 4.124a9.001 9.001 0 0 0-2.883-1.782l-2.045-3.578c-.047-.082-.099-.16-.156-.234A2 2 0 0 1 14.58 2z"/></g></svg>
